!!!COM:	de Orto, Marbrianus
!!!CDT:	~1460///-1529///
!!!OTL:	Credo Le serviteur
!!!AGN:	Mass section; Credo
!!!SCT:	Ort1008
!!!SCA:	Ort1008
!!!voices-OPR:	4
!!!voices:	4
**kern	**silbe	**kern	**silbe	**kern	**silbe	**kern	**silbe
*staff4	*staff4	*staff3	*staff3	*staff2	*staff2	*staff1	*staff1
*Ivox	*	*Ivox	*	*Ivox	*	*Ivox	*
*I"Bassus	*	*I"Tenor	*	*I"Altus	*	*I"Superius	*
*I'B	*	*I'T	*	*I'A	*	*I'S	*
*>[A,B,C,D,E]	*>[A,B,C,D,E]	*>[A,B,C,D,E]	*>[A,B,C,D,E]	*>[A,B,C,D,E]	*>[A,B,C,D,E]	*>[A,B,C,D,E]	*>[A,B,C,D,E]
*>A	*>A	*>A	*>A	*>A	*>A	*>A	*>A
*clefF4	*	*clefGv2	*	*clefGv2	*	*clefG2	*
*k[b-e-]	*	*k[b-e-]	*	*k[b-e-]	*	*k[b-e-]	*
*M3/1	*	*M3/1	*	*M3/1	*	*M3/1	*
*met(O)	*	*met(O)	*	*met(O)	*	*met(O)	*
!!section: Patrem
!!!OMD: Patrem
=1-	=1-	=1-	=1-	=1-	=1-	=1-	=1-
0.r	.	1.c	Pa-	0.r	.	1g	Pa-
.	.	.	.	.	.	2a-i/	.
.	.	2B-\	.	.	.	1g	-trem
.	.	1A	-trem	.	.	.	.
.	.	.	.	.	.	[2f/	om-
=2	=2	=2	=2	=2	=2	=2	=2
0.r	.	1G	om-	2d\	Pa-	2f/]	.
.	.	.	.	1e-	.	2e-/	-ni-
.	.	2F/	-ni-	.	.	1f	-po-
.	.	2D/	-po-	1d	.	.	.
.	.	1E-	-ten-	.	.	1g	-ten-
.	.	.	.	2c\	.	.	.
=3	=3	=3	=3	=3	=3	=3	=3
1BB-	fac-	1D	-tem	1d	-trem	1f	-tem
2.BB-/	-to-	0F	fac-	1r	.	2.d/	fac-
4C/	.	.	.	.	.	4e-/	.
1D	-rem	.	.	2B-\	om-	2f/	-to-
.	.	.	.	2B-\	-ni-	2f/	-rem
=4	=4	=4	=4	=4	=4	=4	=4
2C/	cae-	1G	-to-	2c\	-po-	4e-/	cae-
.	.	.	.	.	.	4f/	.
2E-\	-li	.	.	2B-\	-ten-	2g/	-li
2D\	et	2B-\	-rem	2F/	.	4f/	et
.	.	.	.	.	.	2f/	ter-
2C/	ter-	2c\	cae-	2G/	.	.	.
.	.	.	.	.	.	4eni/	.
1FF	-rae,	1A	-li	1F	-tem	1f	-rae,
=5	=5	=5	=5	=5	=5	=5	=5
2.C/	vi-	1G	et	2.E-/	fac-	1r	.
4C/	-si-	.	.	4F/	.	.	.
2C/	-bi-	0e-	ter-	4G/	.	2c/	vi-
.	.	.	.	4A-i/	.	.	.
2C/	-li-	.	.	2G/	.	2c/	-si-
2C/	-um	.	.	2c\	-to-	4e-/	-bi-
.	.	.	.	.	.	4f/	-li-
2E-\	om-	.	.	[2B-\	-rem	2g/	-um
=6	=6	=6	=6	=6	=6	=6	=6
1BB-	-ni-	1d	.	2B-\]	.	1.f	om-
.	.	.	.	2B-\	cae-	.	.
2F\	-um	2c\	-rae,	2A/	.	.	.
2C/	.	1c	vi-	2G/	-li	2e-/	.
1G	et	.	.	1r	.	1d	-ni-
.	.	2Bni\	-si-	.	.	.	.
=7	=7	=7	=7	=7	=7	=7	=7
2A-\	in-	1c	-bi-	1r	.	1c	-um
1F	-vi-	.	.	.	.	.	.
.	.	1G	-li-	1C	et	1r	.
2E-\	-si-	.	.	.	.	.	.
2F\	-bi-	2F/	-um	2D/	.	1r	.
2E-\	-li-	[2G/	om-	2C/	.	.	.
=8	=8	=8	=8	=8	=8	=8	=8
1C	-um.	2G/]	.	0c	in-	1g	et
.	.	2E-/	.	.	.	.	.
1r	.	2F/	.	.	.	2an/	in-
.	.	2C/	.	.	.	2.g/	-vi-
1r	.	1D	-ni-	2F/	-vi-	.	.
.	.	.	.	.	.	4f/	-si-
.	.	.	.	2F/	-si-	[2f/	-bi-
=9	=9	=9	=9	=9	=9	=9	=9
1r	.	0.C	-um	2G/	-bi-	4f/]	.
.	.	.	.	.	.	4eni/	-li-
.	.	.	.	2G/	-li-	4eni/	.
.	.	.	.	.	.	4d/	.
1FF	Et	.	.	1F	-um.	1f	-um.
2FF/	in	.	.	2.c\	Et	1r	.
2FF/	u-	.	.	.	.	.	.
.	.	.	.	4d\	in	.	.
=10	=10	=10	=10	=10	=10	=10	=10
4C/	-num	2.G/	Et	2e-\	u-	1r	.
4D\	.	.	.	.	.	.	.
4E-\	.	.	.	2c\	-num	.	.
4F\	.	4A/	in	.	.	.	.
2G\	Do-	2B-\	u-	2B-\	Do-	2d/	Et
2E-\	-mi-	2c\	-num	2G/	-mi-	2e-/	in
2D\	-num,	1d	Do-	2A-i/	-num,	2f/	u-
2GG/	Je-	.	.	2G/	Je-	2g/	-num
=11	=11	=11	=11	=11	=11	=11	=11
1C	.	1G	-mi-	1E-	-sum	2g/	Do-
.	.	.	.	.	.	2e-/	-mi-
2BB-/	-sum	0B-	-num,	2F/	Chri-	2d/	-num,
2E-\	Chri-	.	.	4G/	.	2e-/	Je-
.	.	.	.	4A/	.	.	.
2.BB-/	.	.	.	4B-\	.	2d/	-sum
.	.	.	.	4c\	.	.	.
.	.	.	.	[2d\	.	[2g/	Chri-
4C/	.	.	.	.	.	.	.
=12	=12	=12	=12	=12	=12	=12	=12
1D	.	1A	Je-	2d\]	.	4g/]	.
.	.	.	.	.	.	4f#i/	.
.	.	.	.	2d\	-stum,	4f#i/	.
.	.	.	.	.	.	4eni/	.
1GG	-stum,	0G	-sum	2.B-\	Fi-	1g	-stum,
.	.	.	.	4c\	.	.	.
1r	.	.	.	2d\	.	1g	Fi-
.	.	.	.	2e-\	-li-	.	.
=13	=13	=13	=13	=13	=13	=13	=13
0.r	.	1F	Fi-	1f	-um	2.a-i/	.
.	.	.	.	.	.	4a-i/	-li-
.	.	2G/	-li-	1.B-	De-	2g/	-um
.	.	2D/	-um	.	.	2f/	De-
.	.	1E-	De-	.	.	2e-/	-i
.	.	.	.	2c\	-i	2g/	u-
=14	=14	=14	=14	=14	=14	=14	=14
1r	.	2D/	-i	4A/	u-	4f/	-ni-
.	.	.	.	4F/	.	2f/	-ge-
.	.	2C/	u-	2G/	-ni-	.	.
.	.	.	.	.	.	4e-/	-ni-
1BB-	Et	2D/	-ni-	2F/	-ge-	1f	-tum.
.	.	2F/	-ge-	1B-	.	.	.
1C	ex	1E-	-ni-	.	.	1r	.
.	.	.	.	2A/	-ni-	.	.
=15	=15	=15	=15	=15	=15	=15	=15
1BB-	Pa-	0.D	-tum.	2B-\	-tum.	0.r	.
.	.	.	.	2F/	Et	.	.
1GG	-tre	.	.	2G/	ex	.	.
.	.	.	.	2.B-\	Pa-	.	.
1BB-	na-	.	.	.	.	.	.
.	.	.	.	4c\	-tre	.	.
.	.	.	.	2d\	na-	.	.
=16	=16	=16	=16	=16	=16	=16	=16
2C/	.	1r	.	2e-\	-tum,	0.r	.
2GG/	-tum,	.	.	2d\	an-	.	.
2G\	an-	1r	.	2B-\	-te	.	.
2A\	.	.	.	2c\	om-	.	.
1G	-te	1B-	De-	2d\	-ni-	.	.
.	.	.	.	2d\	-a	.	.
=17	=17	=17	=17	=17	=17	=17	=17
2F\	om-	1c	-um	2A/	sae-	1r	.
2E-\	-ni-	.	.	2G/	-cu-	.	.
1D	-a	2d\	de	1A	-la.	1f	De-
.	.	1d	De-	.	.	.	.
2BB-/	sae-	.	.	1r	.	2d/	-um
2GG/	-cu-	2B-\	.	.	.	[2g/	de
=18	=18	=18	=18	=18	=18	=18	=18
1D	-la.	1A	-o,	1d	De-	2g/]	.
.	.	.	.	.	.	2f/	De-
2r	.	0G	lu-	2B-\	-um	2e-/	.
2BB-/	De-	.	.	2d\	de	1f	.
1C	-um	.	.	1c	De-	.	.
.	.	.	.	.	.	2eni/	.
=19	=19	=19	=19	=19	=19	=19	=19
1D	de	1F	-men	1A	-o,	2f/	-o,
.	.	.	.	.	.	2f/	lu-
1E-	De-	0B-	de	2.G/	lu-	2e-/	-men
.	.	.	.	.	.	2g/	de
.	.	.	.	4A/	-men	.	.
2D\	-o,	.	.	2B-\	de	2f/	lu-
2E-\	lu-	.	.	2G/	lu-	2e-/	-mi-
=20	=20	=20	=20	=20	=20	=20	=20
2BB-/	-men	1B-	lu-	2F/	-mi-	2d/	-ne,
2E-\	de	.	.	2G/	-ne,	2e-/	De-
2F\	lu-	1A	.	2r	.	1c	-um
2F\	-mi-	.	.	2F/	De-	.	.
1D	-ne,	[1d	.	1A	-um	1f	ve-
=21	=21	=21	=21	=21	=21	=21	=21
1GG	De-	1d]	.	1G	ve-	1g	-rum
2.C/	.	0c	.	1G	-rum	2.e-/	de
4D\	.	.	.	.	.	4f/	.
2E-\	.	.	.	1r	.	2g/	De-
2F\	-um	.	.	.	.	[2f/	-o
=22	=22	=22	=22	=22	=22	=22	=22
1G	ve-	1B-	.	1r	.	2f/]	.
.	.	.	.	.	.	2eni/	ve-
1F	-rum	0A	.	4c\	Ge-	1f	-ro.
.	.	.	.	4c\	-ni-	.	.
.	.	.	.	2c\	-tum	.	.
4D\	Ge-	.	.	1d	non	1r	.
4D\	-ni-	.	.	.	.	.	.
2D\	-tum	.	.	.	.	.	.
=23	=23	=23	=23	=23	=23	=23	=23
2E-\	non	1G	.	2.B-\	fac-	0.r	.
2BB-/	fac-	.	.	.	.	.	.
.	.	.	.	4A/	.	.	.
2C/	-tum,	2E-/	.	2G/	.	.	.
2D\	con-	2F/	.	2.F/	.	.	.
4C/	-sub-	1G	-mi-	.	.	.	.
8BB-/L	.	.	.	8Eni/L	.	.	.
8AA/J	.	.	.	8D/J	.	.	.
2GG/	.	.	.	2Eni/	.	.	.
=24	=24	=24	=24	=24	=24	=24	=24
2.FF/	-stan-	1C	-ne,	2.F/	.	1r	.
4GG/	.	.	.	4E-/	.	.	.
2AA/	-ti-	1r	.	2C/	.	2r	.
2.BB-/	-a-	.	.	2BB-/	.	2.f/	Ge-
.	.	1r	.	1B-	.	.	.
4C/	.	.	.	.	.	4f/	-ni-
2D\	.	.	.	.	.	2f/	-tum
=25	=25	=25	=25	=25	=25	=25	=25
1C	-lem	1e-	Ge-	2.c\	.	1g	non
.	.	.	.	4G/	.	.	.
1r	.	2d\	-ni-	2B-\	.	2f/	fac-
.	.	1c	-tum	2c\	.	2e-/	.
1r	.	.	.	1G	-tum,	1d	-tum,
.	.	2Bni\	non	.	.	.	.
=26	=26	=26	=26	=26	=26	=26	=26
1C	Pa-	2c\	fac-	1r	.	2e-/	con-
.	.	1G	-tum,	.	.	2e-/	-sub-
2BB-/	.	.	.	1r	.	2d/	-stan-
2C/	.	2E-/	con-	.	.	2c/	-ti-
2GG/	.	1D	-sub-	2r	.	2d/	-a-
2FF/	.	.	.	2F/	con-	[2f/	.
=27	=27	=27	=27	=27	=27	=27	=27
2C/	-tri,	1C	-stan-	2G/	.	2f/]	.
2r	.	.	.	2G/	-sub-	2e-/	-lem
1FF	per	2.C/	-ti-	2F/	-stan-	1f	Pa-
.	.	.	.	2A/	-ti-	.	.
.	.	4D/	.	.	.	.	.
2C/	quem	2E-/	-a-	2G/	-a-	2g/	-tri,
2D\	om-	2F/	-lem	2F/	-lem	2r	.
=28	=28	=28	=28	=28	=28	=28	=28
2E-\	.	2G/	Pa-	2C/	Pa-	0.r	.
2F\	.	2A/	.	2c\	.	.	.
2G\	.	2G/	.	2B-\	.	.	.
2.A-i\	.	1c	.	1e-	.	.	.
8G\L	.	.	.	.	.	.	.
8F\J	.	.	.	.	.	.	.
2E-\	.	2e-\	.	[2c\	.	.	.
=29	=29	=29	=29	=29	=29	=29	=29
2F\	.	1d	.	2c\]	.	1r	.
2G\	.	.	.	2Bni\	.	.	.
1C	-ni-	1c	-tri,	2c\	-tri,	1e-	per
.	.	.	.	1e-	per	.	.
1BB-	-a	1r	.	.	.	1f	quem
.	.	.	.	2d\	.	.	.
=30	=30	=30	=30	=30	=30	=30	=30
1r	.	2.c\	per	1e-	.	1g	.
.	.	4B-\	.	.	.	.	.
2C/	om-	4A-i/	.	0c	quem	2e-/	om-
.	.	4G/	.	.	.	.	.
2FF/	-ni-	2A-i/	.	.	.	2f/	-ni-
1C	-a	2G/	quem	.	.	1g	-a
.	.	2E-/	om-	.	.	.	.
=31	=31	=31	=31	=31	=31	=31	=31
1r	.	2F/	-ni-	2c\	om-	2a/	fac-
.	.	1G	-a	2B-\	.	2b-\	.
2C/	fac-	.	.	2e-\	-ni-	1cc	.
4F\	.	2A-i/	fac-	2c\	-a	.	.
4C/	.	.	.	.	.	.	.
1E-	-ta	2G/	.	2r	.	2b-\	.
.	.	4F/	.	2G/	fac-	4a/	.
.	.	4E-/	.	.	.	4g/	.
=32	=32	=32	=32	=32	=32	=32	=32
1r	.	2F/	.	2c\	.	2a/	.
.	.	2G/	.	2B-\	.	4g/	.
.	.	.	.	.	.	4f/	.
1r	.	1C	.	1G	.	2.eni/	.
.	.	.	.	.	.	4d/	.
2r	.	1D	-ta	1F	-ta	1f	-ta
2BB-/	sunt.	.	.	.	.	.	.
=33	=33	=33	=33	=33	=33	=33	=33
0.FFl	.	0.Cl	sunt.	0.Fl	sunt.	0.fl	sunt.
!!LO:LB:i:g=z
=34||	=34||	=34||	=34||	=34||	=34||	=34||	=34||
*>B	*>B	*>B	*>B	*>B	*>B	*>B	*>B
*clefF4	*	*clefGv2	*	*clefGv2	*	*clefG2	*
*k[b-e-]	*	*k[b-e-]	*	*k[b-e-]	*	*k[b-e-]	*
*M3/1	*	*M3/1	*	*M3/1	*	*M3/1	*
*met(O)	*	*met(O)	*	*met(O)	*	*met(O)	*
!!section: Qui propter nos homines
!!!OMD: Qui propter nos homines
1.AA	Qui	1.c	.	0.r	.	0.r	.
2BB-/	pro-	2B-\	.	.	.	.	.
2C/	-pter	1A	.	.	.	.	.
2D\	nos	.	.	.	.	.	.
=35	=35	=35	=35	=35	=35	=35	=35
2BB-/	ho-	1G	.	1r	.	0.r	.
2C/	-mi-	.	.	.	.	.	.
1D	-nes,	2F/	.	2A/	Qui	.	.
.	.	2D/	.	2B-\	pro-	.	.
1r	.	1E-	.	1c	-pter	.	.
=36	=36	=36	=36	=36	=36	=36	=36
1BB-	et	1D	.	1d	nos	1r	.
2AA/	pro-	0F	.	2.c\	ho-	1r	.
2FF/	-pter	.	.	.	.	.	.
.	.	.	.	4B-\	-mi-	.	.
2F\	no-	.	.	1A	-nes,	2c/	et
2D\	.	.	.	.	.	2d/	pro-
=37	=37	=37	=37	=37	=37	=37	=37
2GG/	.	1G	.	2B-\	et	2d/	-pter
2C/	.	.	.	2c\	pro-	2e-/	no-
2D\	-stram	2B-\	.	2F/	-pter	2d/	-stram
2C/	sa-	2c\	.	2G/	no-	2e-/	sa-
1D	-lu-	1A	.	2D/	-stram	1f	-lu-
.	.	.	.	2d\	sa-	.	.
=38	=38	=38	=38	=38	=38	=38	=38
1E-	.	1G	.	1B-	-lu-	1g	-tem
1C	.	0e-	.	1c	-tem	2r	.
.	.	.	.	.	.	2g/	de-
1E-	.	.	.	1B-	de-	2g/	-scen-
.	.	.	.	.	.	[2b-\	-dit
=39	=39	=39	=39	=39	=39	=39	=39
1BB-	-tem	1d	.	1B-	-scen-	4b-\]	.
.	.	.	.	.	.	4a/	.
.	.	.	.	.	.	4g/	.
.	.	.	.	.	.	4f/	.
1r	.	2c\	.	2c\	-dit	4e-/	.
.	.	.	.	.	.	4d/	.
.	.	1c	.	2A/	de-	1f	de-
1r	.	.	.	1G	-cae-	.	.
.	.	2B-\	.	.	.	2eni/	-cae-
=40	=40	=40	=40	=40	=40	=40	=40
2r	.	1c	.	2F/	-lis.	1f	-lis.
2.F\	de-	.	.	2A/	Et	.	.
.	.	1G	.	2B-\	in-	1r	.
4D\	-scen-	.	.	.	.	.	.
2E-\	-dit	.	.	2B-\	-car-	.	.
2F\	de-	2F/	.	2A/	-na-	1r	.
2BB-/	-cae-	[2G/	.	2B-\	-tus	.	.
=41	=41	=41	=41	=41	=41	=41	=41
1C	-lis.	2G/]	.	1G	est	1r	.
.	.	2E-/	.	.	.	.	.
1r	.	2F/	.	2r	.	2d/	Et
.	.	2C/	.	1c	de	2e-/	.
1r	.	1D	.	.	.	2.f/	in-
.	.	.	.	2B-\	.	.	.
.	.	.	.	.	.	4f/	-car-
=42	=42	=42	=42	=42	=42	=42	=42
1r	.	0.C	.	2c\	Spi-	2e-/	-na-
.	.	.	.	2G/	-ri-	2e-/	-tus
1FF	Et	.	.	1A	-tu	1f	est
1C	in-	.	.	2.G/	sanc-	2r	.
.	.	.	.	.	.	[2g/	de
.	.	.	.	4F/	.	.	.
=43	=43	=43	=43	=43	=43	=43	=43
1C	-car-	2.G/	.	4E-/	.	4g/]	.
.	.	.	.	4D/	.	4f/	.
.	.	.	.	2C/	.	2e-/	Spi-
.	.	4A/	.	.	.	.	.
2D\	-na-	2B-\	.	2F/	.	2d/	-ri-
2E-\	-tus	2c\	.	2G/	.	2c/	-tu
1D	est	1d	.	1A	-to,	1f	sanc-
=44	=44	=44	=44	=44	=44	=44	=44
2r	.	1G	.	1d	ex	1g	-to,
2G\	de	.	.	.	.	.	.
2G\	Spi-	0B-	.	1e-	.	1r	.
2E-\	-ri-	.	.	.	.	.	.
1G	-tu	.	.	2d\	Ma-	1r	.
.	.	.	.	2B-\	-ri-	.	.
=45	=45	=45	=45	=45	=45	=45	=45
1F	sanc-	1A	.	2.c\	-a	1r	.
.	.	.	.	4d\	.	.	.
2C/	.	0G	.	2e-\	.	1r	.
2BB-/	.	.	.	1f	Vir-	.	.
1C	.	.	.	.	.	1g	ex
.	.	.	.	2eni\	-gi-	.	.
=46	=46	=46	=46	=46	=46	=46	=46
1FF	-to,	1F	.	1f	-ne,	1a-	.
1r	.	2G/	.	2e-\	et	2g/	Ma-
.	.	2D/	.	1d	ho-	2f/	-ri-
1r	.	1E-	.	.	.	1g	-a
.	.	.	.	2c\	-mo	.	.
=47	=47	=47	=47	=47	=47	=47	=47
1r	.	2D/	.	2d\	fac-	2f/	Vir-
.	.	2C/	.	2e-\	.	2e-/	-gi-
1BB-	ex	2D/	.	2d\	.	1f	-ne,
.	.	2F/	.	1B-	.	.	.
1C	.	1E-	.	.	.	1r	.
.	.	.	.	2A/	.	.	.
=48	=48	=48	=48	=48	=48	=48	=48
2.BB-/	Ma-	0.D	.	2B-\	.	1r	.
.	.	.	.	2F/	.	.	.
4AA/	.	.	.	.	.	.	.
2GG/	.	.	.	2B-\	.	1r	.
2FF/	.	.	.	2.c\	.	.	.
1GG	-ri-	.	.	.	.	1g	et
.	.	.	.	8B-/L	.	.	.
.	.	.	.	8A/J	.	.	.
.	.	.	.	2B-\	.	.	.
=49	=49	=49	=49	=49	=49	=49	=49
2FF/	-a	1r	.	2.c\	.	2a-/	.
1C	Vir-	.	.	.	.	2g/	ho-
.	.	.	.	8B-/L	.	.	.
.	.	.	.	8A/J	.	.	.
.	.	1r	.	2G/	.	2e-/	-mo
2D\	-gi-	.	.	2F/	.	2f/	.
2E-\	-ne,	1B-	.	2E-/	.	2g/	fac-
2D\	et	.	.	2F/	-tus	[2f/	.
=50	=50	=50	=50	=50	=50	=50	=50
1C	ho-	1c	.	1G	est.	2f/]	.
.	.	.	.	.	.	2eni/	-tus
1.BB-	-mo	2d\	.	2r	.	1f	est.
.	.	1d	.	2F/	fac-	.	.
.	.	.	.	1B-	.	1r	.
4AA/	.	2B-\	.	.	.	.	.
4GG/	.	.	.	.	.	.	.
=51	=51	=51	=51	=51	=51	=51	=51
1FF	fac-	1A	.	0c	-tus	1f	Cru-
1C	-tus	0G	.	.	.	2g/	-ci-
.	.	.	.	.	.	2e-/	-fi-
2GG/	est.	.	.	1B-	est.	2d/	-xus
2r	.	.	.	.	.	2e-/	et-
=52	=52	=52	=52	=52	=52	=52	=52
2BB-/	Cru-	1F	.	2r	.	2d/	-i-
2AA/	-ci-	.	.	2F/	Cru-	2c/	-am
2GG/	-fi-	0B-	.	2G/	-ci-	2.d/	pro
2.BB-/	.	.	.	2F/	-fi-	.	.
.	.	.	.	.	.	4e-/	.
.	.	.	.	2D/	-xus	1f	no-
4C/	.	.	.	.	.	.	.
2D\	-xus	.	.	2r	.	.	.
=53	=53	=53	=53	=53	=53	=53	=53
2E-\	et-	1B-	.	4B-\	et-	1g	-bis,
.	.	.	.	4B-\	-i-	.	.
2E-\	-i-	.	.	2B-\	-am	.	.
2C/	-am	1A	.	2c\	pro	2r	.
2D\	pro	.	.	2A/	no-	2f/	sub
1GG	no-	[1d	.	2G/	-bis,	2.g/	Pon-
.	.	.	.	[2B-\	sub	.	.
.	.	.	.	.	.	4f/	-ti-
=54	=54	=54	=54	=54	=54	=54	=54
1BB-	.	1d]	.	4B-\]	.	2f/	-o
.	.	.	.	4A/	.	.	.
.	.	.	.	2B-\	.	1f	Pi-
1C	.	0c	.	2G/	Pon-	.	.
.	.	.	.	2G/	-ti-	2eni/	-la-
1FF	-bis,	.	.	2.F/	-o	2f/	-to
.	.	.	.	.	.	[2a/	pas-
.	.	.	.	4C/	.	.	.
=55	=55	=55	=55	=55	=55	=55	=55
0.r	.	1B-	.	1E-	Pi-	4a/]	.
.	.	.	.	.	.	4g/	.
.	.	.	.	.	.	2.g/	.
.	.	0A	.	2F/	-la-	.	.
.	.	.	.	.	.	4f/	.
.	.	.	.	2D/	-to	2f/	-sus
.	.	.	.	2C/	pas-	2e-/	et
.	.	.	.	2D/	-sus	2f/	se-
=56	=56	=56	=56	=56	=56	=56	=56
0.r	.	1G	.	2E-/	et	1.g	-pul-
.	.	.	.	1C	se-	.	.
.	.	2E-/	.	.	.	.	.
.	.	2F/	.	2D/	-pul-	1f	.
.	.	1G	.	1C	-tus	.	.
.	.	.	.	.	.	2eni/	-tus
=57	=57	=57	=57	=57	=57	=57	=57
1FF	Et	1C	.	2F/	est.	1f	est.
.	.	.	.	2r	.	.	.
2F\	re-	1r	.	2c\	Et	2r	.
2F\	-sur-	.	.	2c\	re-	2f/	Et
1BB-	-re-	1r	.	1d	-sur-	1f	re-
=58	=58	=58	=58	=58	=58	=58	=58
1C	-xit	1e-	.	1c	-re-	1g	-sur-
2D\	ter-	2d\	.	1A	-xit	1f	-re-
2F\	-ti-	1c	.	.	.	.	.
2G\	-a	.	.	1r	.	1d	-xit
2G\	di-	2B-\	.	.	.	.	.
=59	=59	=59	=59	=59	=59	=59	=59
1C	-e,	2c\	.	2r	.	1e-	ter-
.	.	1G	.	2c\	ter-	.	.
1r	.	.	.	2B-\	-ti-	2d/	-ti-
.	.	2E-/	.	1c	-a	2e-/	-a
1r	.	1D	.	.	.	1f	di-
.	.	.	.	2Bni\	di-	.	.
=60	=60	=60	=60	=60	=60	=60	=60
1r	.	1C	.	1c	-e,	1g	-e,
2C/	se-	2.C/	.	1.c	se-	2g/	se-
2FF/	-cun-	.	.	.	.	2a-i/	-cun-
.	.	4D/	.	.	.	.	.
2C/	-dum	2E-/	.	.	.	2g/	-dum
2D\	Scrip-	2F/	.	2A/	-cun-	2f/	Scrip-
=61	=61	=61	=61	=61	=61	=61	=61
2C/	-tu-	2G/	.	1c	-dum	2e-/	-tu-
2FF/	.	2A/	.	.	.	2f/	-ras,
2BB-/	.	2G/	.	2B-\	Scrip-	4d/	Et
.	.	.	.	.	.	4e-/	a-
2FF/	.	1c	.	2A/	.	2f/	-scen-
1C	-ras,	.	.	2G/	.	2e-/	-dit
.	.	2e-\	.	[2c\	-tu-	2c/	in
=62	=62	=62	=62	=62	=62	=62	=62
1r	.	1d	.	2c\]	.	1f	cae-
.	.	.	.	2Bni\	.	.	.
2C/	Et	1c	.	1c	-ras,	1g	-lum,
2C/	a-	.	.	.	.	.	.
1E-	-scen-	1r	.	2B-i\	Et	1g	se-
.	.	.	.	2e-\	a-	.	.
=63	=63	=63	=63	=63	=63	=63	=63
2F\	-dit	2.c\	.	2c\	-scen-	2.a-i/	.
2C/	in	.	.	2e-\	.	.	.
.	.	4B-\	.	.	.	4g/	.
1D	cae-	4A-i/	.	1d	.	4f/	.
.	.	4G/	.	.	.	4e-/	.
.	.	2A-/	.	.	.	2f/	.
1GG	-lum,	2G/	.	2B-\	-dit	2g/	-det
.	.	2E-/	.	2G/	in	2r	.
=64	=64	=64	=64	=64	=64	=64	=64
2FF/	se-	2F/	.	2A/	cae-	2.c/	ad
1C	.	1G	.	2G/	.	.	.
.	.	.	.	.	.	4d/	.
.	.	.	.	1c	-lum,	2e-/	.
2FF/	.	2A-i/	.	.	.	2f/	dex-
1C	-det	2G/	.	2r	.	2g/	-te-
.	.	4F/	.	2c\	se-	[2c/	-ram
.	.	4E-/	.	.	.	.	.
=65	=65	=65	=65	=65	=65	=65	=65
0.r	.	2F/	.	2A/	-det	4c/]	.
.	.	.	.	.	.	4d/	.
.	.	2G/	.	2B-\	ad	4e-/	.
.	.	.	.	.	.	4f/	.
.	.	1C	.	2E-/	dex-	1g	.
.	.	.	.	2E-/	-te-	.	.
.	.	1D	.	1F	-ram	2f/	.
.	.	.	.	.	.	[2f/	Pa-
=66	=66	=66	=66	=66	=66	=66	=66
1r	.	0.Cl	.	1G	Pa-	2f/]	.
.	.	.	.	.	.	2eni/	.
0FFl	tris.	.	.	0Fl	-tris.	0fl	-tris.
!!LO:LB:i:g=z
=67||	=67||	=67||	=67||	=67||	=67||	=67||	=67||
*>C	*>C	*>C	*>C	*>C	*>C	*>C	*>C
*clefF4	*	*clefGv2	*	*clefGv2	*	*clefG2	*
*k[b-e-]	*	*k[b-e-]	*	*k[b-e-]	*	*k[b-e-]	*
*M2/1	*	*M2/1	*	*M2/1	*	*M2/1	*
*met(C|)	*	*met(C|)	*	*met(C|)	*	*met(C|)	*
!!section: Et iterum
!!!OMD: Et iterum
!LO:TX:Z=8:X=-40:t=Canon at the upper fifth	!	!	!	!	!	!	!
2.D\	.	0r	.	0r	.	0r	.
4E-\	.	.	.	.	.	.	.
2F\	.	.	.	.	.	.	.
2F\	.	.	.	.	.	.	.
=68	=68	=68	=68	=68	=68	=68	=68
1F	.	2.A/	.	0r	.	0r	.
.	.	4B-\	.	.	.	.	.
2r	.	2c\	.	.	.	.	.
2F\	.	2c\	.	.	.	.	.
=69	=69	=69	=69	=69	=69	=69	=69
2E-\	.	1c	.	0r	.	0r	.
2C/	.	.	.	.	.	.	.
1F	.	2r	.	.	.	.	.
.	.	2c\	.	.	.	.	.
=70	=70	=70	=70	=70	=70	=70	=70
1G	.	2B-\	.	0r	.	0r	.
.	.	2G/	.	.	.	.	.
2F\	.	1c	.	.	.	.	.
2E-\	.	.	.	.	.	.	.
=71	=71	=71	=71	=71	=71	=71	=71
1D	.	1d	.	0r	.	0r	.
2E-\	.	2c\	.	.	.	.	.
2E-\	.	2B-\	.	.	.	.	.
=72	=72	=72	=72	=72	=72	=72	=72
1F	.	1A	.	0r	.	0r	.
1G	.	2B-\	.	.	.	.	.
.	.	2B-\	.	.	.	.	.
=73	=73	=73	=73	=73	=73	=73	=73
1r	.	1c	.	0r	.	0r	.
1G	.	1d	.	.	.	.	.
=74	=74	=74	=74	=74	=74	=74	=74
1A-i	.	1r	.	0r	.	0r	.
1G	.	1d	.	.	.	.	.
=75	=75	=75	=75	=75	=75	=75	=75
1E-	.	1e-	.	0r	.	0r	.
2r	.	1d	.	.	.	.	.
[2G\	.	.	.	.	.	.	.
=76	=76	=76	=76	=76	=76	=76	=76
2G\]	.	1B-	.	0r	.	0r	.
2G\	.	.	.	.	.	.	.
1F	.	2r	.	.	.	.	.
.	.	[2d\	.	.	.	.	.
=77	=77	=77	=77	=77	=77	=77	=77
1D	.	2d\]	.	0r	.	0r	.
.	.	2d\	.	.	.	.	.
2E-\	.	1c	.	.	.	.	.
[2F\	.	.	.	.	.	.	.
=78	=78	=78	=78	=78	=78	=78	=78
2F\]	.	1A	.	0r	.	0r	.
2F\	.	.	.	.	.	.	.
1E-	.	2B-\	.	.	.	.	.
.	.	[2c\	.	.	.	.	.
=79	=79	=79	=79	=79	=79	=79	=79
1F	.	2c\]	.	0r	.	0r	.
.	.	2c\	.	.	.	.	.
1G	.	1B-	.	.	.	.	.
=80	=80	=80	=80	=80	=80	=80	=80
2.F\	.	1c	.	0r	.	0r	.
4E-\	.	.	.	.	.	.	.
4D\	.	1d	.	.	.	.	.
4C/	.	.	.	.	.	.	.
[2BB-/	.	.	.	.	.	.	.
=81	=81	=81	=81	=81	=81	=81	=81
2BB-/]	.	2.c\	.	0r	.	0r	.
2AA/	.	.	.	.	.	.	.
.	.	4B-\	.	.	.	.	.
2.BB-/	.	4A/	.	.	.	.	.
.	.	4G/	.	.	.	.	.
.	.	[2F/	.	.	.	.	.
4AA/	.	.	.	.	.	.	.
=82	=82	=82	=82	=82	=82	=82	=82
1GG	.	2F/]	.	0r	.	0r	.
.	.	2Eni/	.	.	.	.	.
1FFl	.	1Fl	.	.	.	.	.
!!LO:LB:i:g=z
=83||	=83||	=83||	=83||	=83||	=83||	=83||	=83||
*>D	*>D	*>D	*>D	*>D	*>D	*>D	*>D
*M2/1	*	*M2/1	*	*M2/1	*	*M2/1	*
*met(C|)	*	*met(O)	*	*met(C|)	*	*met(C|)	*
*	*	*rscale:1/2	*	*	*	*	*
!!section: Et in spiritum
!!!OMD: Et in spiritum
!	!	!LO:TX:Z=8:X=-40:t=Lento passu gradere [2&colon;1 augmentation]	!	!	!	!	!
!	!	!LO:N:vis=1.	!	!	!	!	!
1.AA-	.	[y0c	.	1.C	.	1.e-	.
2AA-/	.	.	.	2C/	.	2e-/	.
=84	=84	=84-	=84	=84	=84	=84	=84
2FF/	.	1c]yy	.	2C/	.	2f/	.
2FF/	.	.	.	2C/	.	2f/	.
1BB-	.	1B-	.	2.D/	.	1f	.
.	.	.	.	4E-/	.	.	.
=85	=85	=85-	=85	=85	=85	=85	=85
2FF/	.	0A	.	1F	.	1r	.
2FF/	.	.	.	.	.	.	.
2FF/	.	.	.	1c	.	1f	.
2FF/	.	.	.	.	.	.	.
=86	=86	=86	=86	=86	=86	=86	=86
1C	.	0G	.	1c	.	1g	.
2r	.	.	.	2d\	.	2f/	.
2GG/	.	.	.	2d\	.	2e-/	.
=87	=87	=87-	=87	=87	=87	=87	=87
2BB-/	.	1F	.	1B-	.	2d/	.
2BB-/	.	.	.	.	.	2d/	.
=-	=-	=	=	=-	=-	=-	=-
2BB-/	.	1D	.	1d	.	2f/	.
2BB-/	.	.	.	.	.	2f/	.
=88	=88	=88-	=88	=88	=88	=88	=88
1EE-	.	0E-	.	2.G/	.	1g	.
.	.	.	.	4A/	.	.	.
1EE-	.	.	.	2.B-\	.	1g	.
.	.	.	.	4c\	.	.	.
=89	=89	=89	=89	=89	=89	=89	=89
1BB-	.	0D	.	[1d	.	1f	.
1GG	.	.	.	2d\]	.	1B-	.
.	.	.	.	4c\	.	.	.
.	.	.	.	4B-\	.	.	.
=90	=90	=90-	=90	=90	=90	=90	=90
1FF	.	[1F	.	1A	.	1c	.
=-	=-	=	=	=-	=-	=-	=-
1BB-	.	1F]	.	1B-	.	2.d/	.
.	.	.	.	.	.	4e-/	.
=91	=91	=91-	=91	=91	=91	=91	=91
2BB-/	.	0F]	.	2d\	.	1f	.
2BB-/	.	.	.	2d\	.	.	.
1D	.	.	.	1B-	.	2r	.
.	.	.	.	.	.	2f/	.
=92	=92	=92	=92	=92	=92	=92	=92
1C	.	0G	.	1c	.	2e-/	.
.	.	.	.	.	.	2e-/	.
2BB-/	.	.	.	2r	.	2d/	.
2E-\	.	.	.	2C/	.	[2g/	.
=93	=93	=93-	=93	=93	=93	=93	=93
1D	.	1B-	.	1F	.	4g/]	.
.	.	.	.	.	.	4f/	.
!	!	!	!	!	!	!LO:N:vis=1	!
.	.	.	.	.	.	[y2f	.
=-	=-	=	=	=-	=-	=-	=-
1C	.	1c	.	1G	.	2f/]yy	.
.	.	.	.	.	.	2eni/	.
=94	=94	=94-	=94	=94	=94	=94	=94
0FF	.	0A	.	1F	.	0f	.
.	.	.	.	1r	.	.	.
=95	=95	=95	=95	=95	=95	=95	=95
1.C	.	0G	.	1E-	.	0r	.
.	.	.	.	2C/	.	.	.
2C/	.	.	.	[2E-/	.	.	.
=96	=96	=96-	=96	=96	=96	=96	=96
!	!	!	!	!	!	!LO:N:vis=0	!
1C	.	[1e-	.	4E-/]	.	1r	.
.	.	.	.	4F/	.	.	.
.	.	.	.	4G/	.	.	.
.	.	.	.	4A-i/	.	.	.
=-	=-	=	=	=-	=-	=-	=-
!	!	!LO:N:vis=1.	!	!	!	!	!
1C	.	1e-_y	.	2G/	.	1ryy	.
.	.	.	.	[2c\	.	.	.
=97	=97	=97-	=97	=97	=97	=97	=97
1r	.	0e-]yy	.	4c\]	.	0r	.
.	.	.	.	4B-\	.	.	.
.	.	.	.	4A/	.	.	.
.	.	.	.	4G/	.	.	.
1C	.	.	.	1A	.	.	.
=98	=98	=98	=98	=98	=98	=98	=98
2.BB-/	.	0d	.	1B-	.	0r	.
4AA/	.	.	.	.	.	.	.
1GG	.	.	.	2r	.	.	.
.	.	.	.	2BB-/	.	.	.
=99	=99	=99-	=99	=99	=99	=99	=99
!	!	!	!	!	!	!LO:N:vis=0	!
2AA/	.	1c	.	2C/	.	1r	.
!	!	!	!	!LO:N:vis=1	!	!	!
2AA/	.	.	.	[yy2F	.	.	.
=-	=-	=	=	=-	=-	=-	=-
!	!	!LO:N:vis=1	!	!	!	!	!
2FF/	.	[y1c	.	2F]y	.	1ryy	.
[2C/	.	.	.	2E-/	.	.	.
=100	=100	=100-	=100	=100	=100	=100	=100
2C/]	.	1c]yy	.	1G	.	1r	.
2E-\	.	.	.	.	.	.	.
1D	.	1Bni	.	1r	.	1f	.
=101	=101	=101	=101	=101	=101	=101	=101
2C/	.	0c	.	0r	.	2g/	.
1F	.	.	.	.	.	[y2a-	.
.	.	.	.	.	.	2a-]yy	.
[2E-\	.	.	.	.	.	[2g/	.
=102	=102	=102-	=102	=102	=102	=102	=102
4E-\]	.	[1G	.	1r	.	4g/]	.
4D\	.	.	.	.	.	4f/	.
4C/	.	.	.	.	.	4eni/	.
4BB-/	.	.	.	.	.	4d/	.
=-	=-	=	=	=-	=-	=-	=-
1C	.	1G]	.	1c	.	1eni	.
=103	=103	=103-	=103	=103	=103	=103	=103
2FF/	.	1F	.	2c\	.	1f	.
1BB-	.	.	.	[2d\	.	.	.
.	.	[1G	.	4d\]	.	1r	.
.	.	.	.	4c\	.	.	.
2GG/	.	.	.	4B-\	.	.	.
.	.	.	.	4A/	.	.	.
=104	=104	=104	=104	=104	=104	=104	=104
2C/	.	1G]	.	2G/	.	0r	.
2BB-/	.	.	.	1B-	.	.	.
1C	.	1E-	.	.	.	.	.
.	.	.	.	2A/	.	.	.
=105	=105	=105-	=105	=105	=105	=105	=105
1BB-	.	1F	.	1B-	.	1d	.
=-	=-	=	=	=-	=-	=-	=-
1r	.	1C	.	1c	.	1e-	.
=106	=106	=106-	=106	=106	=106	=106	=106
0r	.	0D	.	1A	.	1.f	.
.	.	.	.	1B-	.	.	.
.	.	.	.	.	.	2f/	.
=107	=107	=107	=107	=107	=107	=107	=107
1FF	.	[0C	.	2.c\	.	1f	.
.	.	.	.	4B-\	.	.	.
1C	.	.	.	1G	.	2e-/	.
.	.	.	.	.	.	[2g/	.
=108	=108	=108-	=108	=108	=108	=108	=108
!LO:N:vis=0	!	!	!	!	!	!	!
1r	.	1C_	.	2E-/	.	4g/]	.
.	.	.	.	.	.	4f/	.
!	!	!	!	!	!	!LO:N:vis=1	!
.	.	.	.	2F/	.	[y2f	.
=-	=-	=	=	=-	=-	=-	=-
1ryy	.	1C_	.	1G	.	2f]yy	.
.	.	.	.	.	.	2eni/	.
=109	=109	=109-	=109	=109	=109	=109	=109
0FF	.	0C]	.	0F	.	0f	.
=110	=110	=110	=110	=110	=110	=110	=110
1r	.	1.G	.	1B-	.	1d	.
1C	.	.	.	1c	.	1e-	.
.	.	2A/	.	.	.	.	.
=111	=111	=111-	=111	=111	=111	=111	=111
!	!	!	!	!	!	!LO:N:vis=2	!
1BB-	.	1B-	.	2d\	.	[y1f	.
!	!	!	!	!LO:N:vis=1	!	!	!
.	.	.	.	[y2B-	.	.	.
=-	=-	=	=	=-	=-	=-	=-
1FF	.	1c	.	2B-]yy	.	1f]yy	.
.	.	.	.	2A/	.	.	.
=112	=112	=112-	=112	=112	=112	=112	=112
0BB-	.	0d	.	[0B-	.	0f	.
=113	=113	=113	=113	=113	=113	=113	=113
0E-	.	0G	.	0B-]	.	1r	.
.	.	.	.	.	.	1g	.
=114	=114	=114-	=114	=114	=114	=114	=114
1G	.	[1B-	.	1E-	.	[yy1g	.
=-	=-	=	=	=-	=-	=-	=-
!	!	!LO:N:vis=1.	!	!	!	!	!
1E-	.	1B-_y	.	1r	.	2g]y	.
.	.	.	.	.	.	2f/	.
=115	=115	=115-	=115	=115	=115	=115	=115
2.D\	.	0B-]yy	.	1F	.	2f/	.
.	.	.	.	.	.	2e-/	.
4C/	.	.	.	.	.	.	.
1BB-	.	.	.	2F/	.	1d	.
.	.	.	.	2F/	.	.	.
=116	=116	=116	=116	=116	=116	=116	=116
0FF	.	0A	.	2F/	.	1c	.
.	.	.	.	2F/	.	.	.
.	.	.	.	2F/	.	1r	.
.	.	.	.	[2c\	.	.	.
=117	=117	=117-	=117	=117	=117	=117	=117
!LO:N:vis=0	!	!	!	!	!	!LO:N:vis=0	!
[y1GG	.	[1G	.	2c\]	.	1r	.
.	.	.	.	4Bni\	.	.	.
.	.	.	.	4A/	.	.	.
=-	=-	=	=	=-	=-	=-	=-
!	!	!LO:N:vis=1.	!	!	!	!	!
1GG]yy	.	1G]y	.	1Bni	.	1ryy	.
=118	=118	=118-	=118	=118	=118	=118	=118
1C	.	0G]yy	.	2.c\	.	0g	.
.	.	.	.	4d\	.	.	.
2C/	.	.	.	1e-	.	.	.
2C/	.	.	.	.	.	.	.
=119	=119	=119	=119	=119	=119	=119	=119
1c	.	0F	.	1f	.	0a-	.
1F	.	.	.	1f	.	.	.
=120	=120	=120-	=120	=120	=120	=120	=120
1E-	.	1G	.	1B-	.	2g/	.
.	.	.	.	.	.	2g/	.
=-	=-	=	=	=-	=-	=-	=-
1F	.	1D	.	2B-\	.	2f/	.
.	.	.	.	2B-\	.	2f/	.
=121	=121	=121-	=121	=121	=121	=121	=121
0G	.	0E-	.	2B-\	.	2.e-/	.
.	.	.	.	2B-\	.	.	.
.	.	.	.	.	.	4f/	.
.	.	.	.	1G	.	4g/	.
.	.	.	.	.	.	4a/	.
.	.	.	.	.	.	[2b-\	.
=122	=122	=122	=122	=122	=122	=122	=122
1F	.	1D	.	1B-	.	4b-\]	.
.	.	.	.	.	.	4a/	.
.	.	.	.	.	.	4g/	.
.	.	.	.	.	.	4f/	.
1G	.	1C	.	2c\	.	2.eni/	.
.	.	.	.	2c\	.	.	.
.	.	.	.	.	.	4d/	.
=123	=123	=123-	=123	=123	=123	=123	=123
1F	.	1D	.	1A	.	1f	.
=-	=-	=	=	=-	=-	=-	=-
1r	.	1F	.	[1d	.	1r	.
=124	=124	=124-	=124	=124	=124	=124	=124
0r	.	0E-	.	2d\]	.	0r	.
.	.	.	.	4c\	.	.	.
.	.	.	.	4B-\	.	.	.
.	.	.	.	1c	.	.	.
=125	=125	=125	=125	=125	=125	=125	=125
1.GG	.	[0D	.	2B-\	.	0r	.
.	.	.	.	2.d\	.	.	.
.	.	.	.	.	.	.	.
.	.	.	.	4c\	.	.	.
2AA/	.	.	.	[2B-\	.	.	.
=126	=126	=126-	=126	=126	=126	=126	=126
!	!	!	!	!	!	!LO:N:vis=1.	!
1BB-	.	1D_	.	2B-\]	.	[y1d	.
.	.	.	.	4A/	.	.	.
.	.	.	.	4G/	.	.	.
=-	=-	=	=	=-	=-	=-	=-
!	!	!LO:N:vis=1.	!	!	!	!	!
1BB-	.	1D_y	.	1F	.	2d/]yy	.
.	.	.	.	.	.	2e-/	.
=127	=127	=127-	=127	=127	=127	=127	=127
1.BB-	.	0D]yy	.	1r	.	1.f	.
.	.	.	.	1B-	.	.	.
4AA/	.	.	.	.	.	2f/	.
4GG/	.	.	.	.	.	.	.
=128	=128	=128	=128	=128	=128	=128	=128
!	!	!LO:N:vis=1.	!	!	!	!	!
2.FF/	.	0r	.	2.A/	.	1f	.
4GG/	.	.	.	4B-\	.	.	.
2AA/	.	.	.	2c\	.	1f	.
[2BB-/	.	.	.	[2d\	.	.	.
=129	=129	=129-	=129	=129	=129	=129	=129
4BB-/]	.	1ryy	.	2d\]	.	1f	.
4C/	.	.	.	.	.	.	.
!	!	!	!	!LO:N:vis=1	!	!	!
2D\	.	.	.	[y2B-	.	.	.
=-	=-	=	=	=-	=-	=-	=-
1E-	.	1r	.	2B-]yy	.	1g	.
.	.	.	.	2c\	.	.	.
=130	=130	=130-	=130	=130	=130	=130	=130
1D	.	0B-	.	1F	.	2.f/	.
.	.	.	.	.	.	4e-/	.
2.G\	.	.	.	1r	.	1d	.
4F\	.	.	.	.	.	.	.
=131	=131	=131	=131	=131	=131	=131	=131
2.E-\	.	0c	.	1G	.	1e-	.
4D\	.	.	.	.	.	.	.
1C	.	.	.	2G/	.	1e-	.
.	.	.	.	2G/	.	.	.
=132	=132	=132-	=132	=132	=132	=132	=132
!	!	!	!	!	!	!LO:N:vis=1.	!
1GG	.	1d	.	2G/	.	[1d	.
!	!	!	!	!LO:N:vis=1	!	!	!
.	.	.	.	[y2G	.	.	.
=-	=-	=	=	=-	=-	=-	=-
!	!	!LO:N:vis=1	!	!	!	!	!
1r	.	[y1d	.	2G]yy	.	2d]yy	.
.	.	.	.	4F/	.	2e-/	.
.	.	.	.	4E-/	.	.	.
=133	=133	=133-	=133	=133	=133	=133	=133
0r	.	1d]yy	.	1D	.	1f	.
.	.	1B-	.	1G	.	[1g	.
=134	=134	=134	=134	=134	=134	=134	=134
0D	.	0A	.	1D	.	2g/]	.
.	.	.	.	.	.	4f#i/	.
.	.	.	.	.	.	4eni/	.
.	.	.	.	1d	.	1f#i	.
=135	=135	=135-	=135	=135	=135	=135	=135
!LO:N:vis=0	!	!	!	!LO:N:vis=0	!	!LO:N:vis=0	!
[y1E-	.	[1G	.	[y1B-	.	[y1g	.
=-	=-	=	=	=-	=-	=-	=-
1E-]yy	.	1G_	.	1B-]yy	.	1g]yy	.
=136	=136	=136-	=136	=136	=136	=136	=136
0C	.	0G]	.	0c	.	0e-	.
=137	=137	=137	=137	=137	=137	=137	=137
0FF	.	0F	.	1c	.	0f	.
.	.	.	.	[1F	.	.	.
=138	=138	=138-	=138	=138	=138	=138	=138
!LO:N:vis=0	!	!	!	!	!	!LO:N:vis=0	!
1r	.	[1B-	.	2F/]	.	[y1g	.
.	.	.	.	4Eni/	.	.	.
.	.	.	.	4D/	.	.	.
=-	=-	=	=	=-	=-	=-	=-
1ryy	.	1B-_	.	1Eni	.	1g]yy	.
=139	=139	=139-	=139	=139	=139	=139	=139
1.BB-	.	0B-]	.	1F	.	0f	.
.	.	.	.	1F	.	.	.
2AA/	.	.	.	.	.	.	.
=140	=140	=140	=140	=140	=140	=140	=140
1GG	.	0B-	.	1G	.	0r	.
1BB-	.	.	.	1F	.	.	.
=141	=141	=141-	=141	=141	=141	=141	=141
!LO:N:vis=0	!	!	!	!LO:N:vis=0	!	!LO:N:vis=0	!
1r	.	[1A	.	[y1D	.	[y1f	.
=-	=-	=	=	=-	=-	=-	=-
1ryy	.	1A]	.	1D]yy	.	1f]yy	.
=142	=142	=142-	=142	=142	=142	=142	=142
1GG	.	[0d	.	1B-	.	1g	.
1BB-	.	.	.	1B-	.	1f	.
=143	=143	=143	=143	=143	=143	=143	=143
1D	.	0d]	.	1A	.	1d	.
1GG	.	.	.	1B-	.	1r	.
=144	=144	=144-	=144	=144	=144	=144	=144
!LO:N:vis=0	!	!	!	!LO:N:vis=0	!	!LO:N:vis=0	!
[y1C	.	[1c	.	[y1G	.	1r	.
=-	=-	=	=	=-	=-	=-	=-
1C]yy	.	1c_	.	1G]yy	.	1ryy	.
=145	=145	=145-	=145	=145	=145	=145	=145
0r	.	0c]	.	0A-	.	1e-	.
.	.	.	.	.	.	1e-	.
=146	=146	=146	=146	=146	=146	=146	=146
0GG	.	0B-	.	1r	.	1.d	.
.	.	.	.	1G	.	.	.
.	.	.	.	.	.	2e-/	.
=147	=147	=147-	=147	=147	=147	=147	=147
!	!	!	!	!LO:N:vis=0	!	!	!
1FF	.	[1A	.	[y1c	.	1f	.
=-	=-	=	=	=-	=-	=-	=-
1F	.	1A_	.	1c]yy	.	1f	.
=148	=148	=148-	=148	=148	=148	=148	=148
0D	.	0A]	.	0d	.	1f	.
.	.	.	.	.	.	1f	.
=149	=149	=149	=149	=149	=149	=149	=149
1E-	.	0G	.	1B-	.	1g	.
1C	.	.	.	1c	.	1e-	.
=150	=150	=150-	=150	=150	=150	=150	=150
!LO:N:vis=0	!	!	!	!	!	!	!
1r	.	1E-	.	1C	.	1g	.
=-	=-	=	=	=-	=-	=-	=-
1ryy	.	1F	.	1D	.	[1f	.
=151	=151	=151-	=151	=151	=151	=151	=151
0r	.	0G	.	0C	.	2f/]	.
.	.	.	.	.	.	4eni/	.
.	.	.	.	.	.	4d/	.
.	.	.	.	.	.	1eni	.
=152	=152	=152	=152	=152	=152	=152	=152
0FF	.	0C	.	0F	.	0f	.
=153	=153	=153-	=153	=153	=153	=153	=153
!	!	!	!	!	!	!LO:N:vis=0	!
1AA	.	1r	.	1C	.	1r	.
=-	=-	=	=	=-	=-	=-	=-
!	!	!LO:N:vis=1.	!	!	!	!	!
1BB-	.	1r	.	1D	.	1ryy	.
=154	=154	=154-	=154	=154	=154	=154	=154
0C	.	0ryy	.	4E-/	.	0r	.
.	.	.	.	4F/	.	.	.
.	.	.	.	4G/	.	.	.
.	.	.	.	4A/	.	.	.
.	.	.	.	2G/	.	.	.
.	.	.	.	[2c\	.	.	.
=155	=155	=155	=155	=155	=155	=155	=155
1C	.	0e-	.	4c\]	.	0r	.
.	.	.	.	4B-\	.	.	.
.	.	.	.	1B-	.	.	.
1C	.	.	.	.	.	.	.
.	.	.	.	2A/	.	.	.
=156	=156	=156-	=156	=156	=156	=156	=156
1BB-	.	1d	.	1B-	.	1d	.
=-	=-	=	=	=-	=-	=-	=-
!	!	!LO:N:vis=1	!	!	!	!	!
1C	.	[y1c	.	2G/	.	1e-	.
.	.	.	.	[2c\	.	.	.
=157	=157	=157-	=157	=157	=157	=157	=157
0D	.	1c]yy	.	4c\]	.	1f	.
.	.	.	.	4B-\	.	.	.
.	.	.	.	4A/	.	.	.
.	.	.	.	4G/	.	.	.
.	.	1Bni	.	1F	.	1f	.
=158	=158	=158	=158	=158	=158	=158	=158
1C	.	1c	.	1G	.	1e-	.
!	!	!LO:N:vis=1	!	!	!	!	!
1C	.	[y1G	.	1E-	.	1e-	.
=159	=159	=159-	=159	=159	=159	=159	=159
1BB-	.	1G]yy	.	1B-	.	1d	.
=-	=-	=	=	=-	=-	=-	=-
1C	.	1E-	.	[1G	.	[1c	.
=160	=160	=160-	=160	=160	=160	=160	=160
0GG	.	0D	.	1G]	.	2c/]	.
.	.	.	.	.	.	4Bni/	.
.	.	.	.	.	.	4A/	.
.	.	.	.	1G	.	1Bni	.
=161	=161	=161	=161	=161	=161	=161	=161
1G	.	0C	.	1E-	.	1c	.
[1A-	.	.	.	1C	.	1c	.
=162	=162	=162-	=162	=162	=162	=162	=162
!	!	!	!	!LO:N:vis=0	!	!LO:N:vis=0	!
1A-]	.	[1C	.	[y1c	.	1r	.
=-	=-	=	=	=-	=-	=-	=-
1G	.	2C/]	.	1c]yy	.	1ryy	.
.	.	2D/	.	.	.	.	.
=163	=163	=163-	=163	=163	=163	=163	=163
1G	.	1E-	.	1B-	.	0r	.
1F	.	1F	.	1A	.	.	.
=164	=164	=164	=164	=164	=164	=164	=164
2E-\	.	1G	.	2B-\	.	0r	.
1C	.	.	.	1c	.	.	.
.	.	1A	.	.	.	.	.
[2F\	.	.	.	2F/	.	.	.
=165	=165	=165-	=165	=165	=165	=165	=165
!	!	!	!	!	!	!LO:N:vis=0	!
2F\]	.	1G	.	1B-	.	1r	.
2E-\	.	.	.	.	.	.	.
=-	=-	=	=	=-	=-	=-	=-
1F	.	[1c	.	1A	.	1ryy	.
=166	=166	=166-	=166	=166	=166	=166	=166
0C	.	1c]	.	1G	.	0r	.
.	.	1e-	.	[1c	.	.	.
=167	=167	=167	=167	=167	=167	=167	=167
0G	.	0d	.	2c\]	.	0r	.
.	.	.	.	4Bni\	.	.	.
.	.	.	.	4A/	.	.	.
.	.	.	.	1Bni	.	.	.
=168	=168	=168-	=168	=168	=168	=168	=168
!LO:N:vis=0	!	!	!	!	!	!	!
[y1C	.	[1c	.	2c\	.	1c	.
.	.	.	.	2C/	.	.	.
=-	=-	=	=	=-	=-	=-	=-
1C]yy	.	1c]	.	1E-	.	1g	.
=169	=169	=169-	=169	=169	=169	=169	=169
0FF	.	0r	.	0F	.	0a-i	.
=170	=170	=170	=170	=170	=170	=170	=170
1r	.	1.c	.	1C	.	1g	.
1C	.	.	.	1E-	.	[1g	.
.	.	2B-\	.	.	.	.	.
=171	=171	=171-	=171	=171	=171	=171	=171
!LO:N:vis=0	!	!	!	!	!	!	!
[y1D	.	2A/	.	1D	.	2g/]	.
.	.	2G/	.	.	.	4f#i/	.
.	.	.	.	.	.	4eni/	.
=-	=-	=	=	=-	=-	=-	=-
1D]yy	.	1A	.	1d	.	1f#i	.
=172	=172	=172-	=172	=172	=172	=172	=172
1GG	.	1G	.	2.B-\	.	1g	.
.	.	.	.	4A/	.	.	.
2C/	.	1E-	.	1G	.	2r	.
2E-\	.	.	.	.	.	2g/	.
=173	=173	=173	=173	=173	=173	=173	=173
2D\	.	1F	.	1r	.	2a/	.
2BB-/	.	.	.	.	.	2.b-\	.
!	!	!LO:N:vis=1	!	!	!	!	!
1E-	.	[y1G	.	1B-	.	.	.
.	.	.	.	.	.	4a/	.
.	.	.	.	.	.	4g/	.
.	.	.	.	.	.	4f/	.
=174	=174	=174-	=174	=174	=174	=174	=174
!	!	!	!	!LO:N:vis=0	!	!	!
1C	.	1G]yy	.	[y1c	.	1e-	.
=-	=-	=	=	=-	=-	=-	=-
1F	.	1A	.	1c]yy	.	2f/	.
.	.	.	.	.	.	[2cc\	.
=175	=175	=175-	=175	=175	=175	=175	=175
1E-	.	1G	.	1e-	.	2cc\]	.
.	.	.	.	.	.	2b-\	.
2F\	.	2F/	.	2c\	.	2a/	.
2C/	.	2E-/	.	[2c\	.	[2g/	.
=176	=176	=176	=176	=176	=176	=176	=176
1D	.	1F	.	2c\]	.	4g/]	.
.	.	.	.	.	.	4f/	.
.	.	.	.	2B-\	.	1f	.
1C	.	1G	.	2.c\	.	.	.
.	.	.	.	.	.	[2e-/	.
.	.	.	.	4B-\	.	.	.
=177	=177	=177-	=177	=177	=177	=177	=177
2r	.	[1C	.	1G	.	4e-/]	.
.	.	.	.	.	.	4f/	.
2C/	.	.	.	.	.	2g/	.
=-	=-	=	=	=-	=-	=-	=-
2FF/	.	1C]	.	2F/	.	2a-i/	.
2C/	.	.	.	2E-/	.	[2g/	.
=178	=178	=178-	=178	=178	=178	=178	=178
1BB-	.	0D	.	1F	.	4g/]	.
.	.	.	.	.	.	4f/	.
.	.	.	.	.	.	1f	.
1BB-	.	.	.	1B-	.	.	.
.	.	.	.	.	.	[2b-\	.
=179	=179	=179	=179	=179	=179	=179	=179
!	!	!LO:N:vis=00	!	!	!	!	!
2.E-\	.	[0Cl	.	0G	.	4b-\]	.
.	.	.	.	.	.	4a/	.
.	.	.	.	.	.	4g/	.
4D\	.	.	.	.	.	4f/	.
1C	.	.	.	.	.	2.eni/	.
.	.	.	.	.	.	4d/	.
=180	=180	=180	=180	=180	=180	=180	=180
0FFl	.	0C]	.	0Fl	.	0fl	.
*	*	*rscale:1	*	*	*	*	*
!!LO:LB:i:g=z
=181||	=181||	=181||	=181||	=181||	=181||	=181||	=181||
*>E	*>E	*>E	*>E	*>E	*>E	*>E	*>E
*clefF4	*	*clefGv2	*	*clefGv2	*	*clefG2	*
*k[b-e-]	*	*k[b-e-]	*	*k[b-e-]	*	*k[b-e-]	*
*M2/1	*	*M2/1	*	*M2/1	*	*M2/1	*
*met(C|)	*	*met(O)	*	*met(C|)	*	*met(C|)	*
!!primary-mensuration: met(C|)
*	*	*rscale:1/2	*	*	*	*	*
!!section: Amen
!!!OMD: Amen
!	!	!LO:N:vis=1.	!	!	!	!	!
0F	.	[y0c	.	0c	.	0f	.
=182	=182	=182-	=182	=182	=182	=182	=182
!LO:N:vis=0	!	!	!	!LO:N:vis=0	!	!LO:N:vis=0	!
[y1E-	.	1c]yy	.	[y1e-	.	[y1g	.
=-	=-	=	=	=-	=-	=-	=-
1E-]yy	.	1B-	.	1e-]yy	.	1g]yy	.
=183	=183	=183-	=183	=183	=183	=183	=183
0F	.	0A	.	[0c	.	0f	.
=184	=184	=184	=184	=184	=184	=184	=184
0C	.	0G	.	0c]	.	0e-	.
=185	=185	=185-	=185	=185	=185	=185	=185
1r	.	1F	.	1A	.	1d	.
=-	=-	=	=	=-	=-	=-	=-
1BB-	.	1D	.	1B-	.	[1d	.
=186	=186	=186-	=186	=186	=186	=186	=186
1C	.	0E-	.	0G	.	2d/]	.
.	.	.	.	.	.	2c/	.
1C	.	.	.	.	.	2c/	.
.	.	.	.	.	.	2B-/	.
=187	=187	=187	=187	=187	=187	=187	=187
!	!	!LO:N:vis=00	! 	!	!	!	!
2BB-/	.	[0Dl	.	1r	.	[0dl	.
2.GG/	.	.	.	.	.	.	.
.	.	.	.	2.B-\	.	.	.
4FF/	.	.	.	.	.	.	.
2GG/	.	.	.	.	.	.	.
.	.	.	.	4A/	.	.	.
=188	=188	=188	=188	=188	=188	=188	=188
0DDl	.	0D]	.	0Al	.	0d]	.
*	*	*rscale:1	*	*	*	*	*
==	==	==	==	==	==	==	==
*-	*-	*-	*-	*-	*-	*-	*-
!!!RDF**kern: l=long note in original notation
!!!RDF**kern: i=editorial accidental
!!!RDF**kern: V=start of tuplet marker
!!!RDF**kern: Z=end of tuplet marker
!!!ENC:	Jesse Rodin (8/13/2012)
!!!END:	2012/08/13/
!!!EED:	Jesse Rodin
!!!EEV:	2012/08/14/
!!!ONB:	Translated from MusicXML and edited on 2012/08/14/ by Craig Sapp
!!muse2ps: C^@{COM}^i2I150v85,85,85,150c110
